.local/share/icons/Gruvbox-Plus-Dark/panel/16/network-wireless-secure-signal-none.svg

<svg width="16" height="16" version="1.1" xmlns="http://www.w3.org/2000/svg">
  <defs>
    <style id="current-color-scheme" type="text/css">.ColorScheme-Text { color:#ebdbb2; } .ColorScheme-Highlight { color:#458588; } .ColorScheme-NeutralText { color:#fe8019; } .ColorScheme-PositiveText { color:#689d6a; } .ColorScheme-NegativeText { color:#fb4934; }</style>
  </defs>
  <path class="ColorScheme-Text" d="m8.031 2c-3.034 0-5.766 1.271-8.031 3.016l8.031 8.984 0.969-1.094v-1.906h1.014c0.019-1.635 1.342-3 2.986-3 0.108 0 0.21 0.022 0.314 0.033l2.686-3.033c-2.257-1.725-4.958-3-7.969-3z" fill="currentColor" opacity=".3"/>
  <path class="ColorScheme-Text" d="m13 9c-1.108 0-2 0.911-2 2.031v0.969h-1v4h6v-4h-1v-0.969c0-1.12-0.892-2.031-2-2.031zm0 1c0.554 0 1 0.442 1 1v1h-2v-1c0-0.558 0.446-1 1-1z" fill="currentColor"/>
</svg>

<svg xmlns="http://www.w3.org/2000/svg" width="16" height="16" version="1.1">
 <defs>
  <style id="current-color-scheme" type="text/css">
   .ColorScheme-Text { color:#ebdbb2; } .ColorScheme-Highlight { color:#458588; }
  </style>
 </defs>
 <path style="opacity:0.3;fill:currentColor" class="ColorScheme-Text" d="M 8.031,2 C 4.9969,2 2.2653,3.2711 0,5.0156 L 8.031,14 9,12.906 V 11 H 10.014 C 10.033,9.365 11.356,8 13,8 13.108,8 13.21,8.022 13.314,8.033 L 16,5 C 13.743,3.2748 11.042,2 8.031,2 Z"/>
 <path style="fill:currentColor" class="ColorScheme-Text" d="M 13,9 C 11.892,9 11,9.911 11,11.031 V 12 H 10 V 16 H 16 V 12 H 15 V 11.031 C 15,9.911 14.108,9 13,9 Z M 13,10 C 13.554,10 14,10.442 14,11 V 12 H 12 V 11 C 12,10.442 12.446,10 13,10 Z"/>
</svg>
